svgs/sharp-light/file-circle-minus.svg

<svg xmlns="http://www.w3.org/2000/svg" viewBox="0 0 576 512"><!--! Font Awesome Pro 6.6.0 by @fontawesome - https://fontawesome.com License - https://fontawesome.com/license (Commercial License) Copyright 2024 Fonticons, Inc. --><path d="M352 192l0 19.2c10.1-5.2 20.8-9.4 32-12.6l0-46.6L232 0 32 0 0 0 0 32 0 480l0 32 32 0 298.8 0c-12.9-9.1-24.5-19.9-34.6-32L32 480 32 32l160 0 0 144 0 16 16 0 144 0zm-5.3-32L224 160l0-122.7L346.7 160zM432 256a112 112 0 1 1 0 224 112 112 0 1 1 0-224zm0 256a144 144 0 1 0 0-288 144 144 0 1 0 0 288zm80-128l0-32-16 0-128 0-16 0 0 32 16 0 128 0 16 0z"/></svg>

<svg xmlns="http://www.w3.org/2000/svg" viewBox="0 0 576 512"><!--! Font Awesome Pro 6.4.2 by @fontawesome - https://fontawesome.com License - https://fontawesome.com/license (Commercial License) Copyright 2023 Fonticons, Inc. --><path d="M352 192v19.2c10.1-5.2 20.8-9.4 32-12.6V152L232 0H32 0V32 480v32H32 330.8c-12.9-9.1-24.5-19.9-34.6-32H32V32H192V176v16h16H352zm-5.3-32H224V37.3L346.7 160zM432 256a112 112 0 1 1 0 224 112 112 0 1 1 0-224zm0 256a144 144 0 1 0 0-288 144 144 0 1 0 0 288zm80-128V352H496 368 352v32h16H496h16z"/></svg>
